public/icons/sigstore.svg

<?xml version="1.0" encoding="UTF-8"?>
<svg width="256px" height="275px" viewBox="0 0 256 275" version="1.1" xmlns="http://www.w3.org/2000/svg" preserveAspectRatio="xMidYMid">
    <title>sigstore</title>
    <g>
        <path d="M252.929365,99.1701466 C250.199911,88.2523323 244.741004,79.1541537 237.462461,70.965793 C232.003554,64.597068 225.634829,59.1381608 219.266104,52.7694358 C212.897379,47.3105287 208.34829,40.9418036 205.618836,33.6632608 C203.7992,30.0239893 201.979565,26.3847179 199.250111,22.7454465 C194.701022,16.3767215 187.422479,11.8276322 180.143936,8.18836073 C168.316304,1.81963572 155.578854,-2.84217094e-14 141.931586,-2.84217094e-14 C134.653043,-2.84217094e-14 127.3745,0.909817859 120.095957,2.72945358 C109.178143,4.54908929 99.1701466,9.09817859 89.1621502,14.5570857 C82.7934251,18.1963572 77.334518,22.7454465 71.8756108,27.2945358 C62.7774323,34.5730786 53.6792537,41.8516215 46.4007108,50.9498001 C40.9418036,58.228343 33.6632608,62.7774323 26.3847179,67.3265215 C19.106175,70.965793 13.6472679,76.4247001 8.18836073,81.8836073 C2.72945358,87.3425144 0,93.7112394 0,100.989782 C0,106.448689 0.909817859,111.907597 1.81963572,116.456686 C3.63927143,124.645047 7.27854287,131.92359 10.0079964,140.11195 C11.8276322,144.66104 12.73745,149.210129 12.73745,153.759218 C12.73745,158.308307 12.73745,162.857397 11.8276322,167.406486 C10.9178143,177.414482 11.8276322,188.332297 13.6472679,198.340293 C15.4669036,207.438472 20.9258108,214.717015 30.0239893,218.356286 C30.9338072,219.266104 32.7534429,219.266104 33.6632608,219.266104 C35.4828965,220.175922 35.4828965,221.08574 34.5730786,221.995558 C34.5730786,221.995558 34.5730786,221.995558 33.6632608,222.905375 C30.0239893,227.454465 27.2945358,232.913372 28.2043536,239.282097 C29.1141715,249.290093 40.0319858,255.658818 49.1301644,251.109729 C54.5890715,249.290093 60.0479787,251.109729 61.8676144,254.749 C62.7774323,255.658818 62.7774323,256.568636 63.6872501,257.478454 C65.5068858,262.027543 67.3265215,265.666815 70.0559751,269.306086 C73.6952466,273.855175 78.2443359,275.674811 84.6130609,274.764993 C88.2523323,273.855175 91.8916037,272.945358 95.5308752,271.125722 C101.8996,267.48645 107.358507,262.937361 113.727232,257.478454 C115.546868,255.658818 117.366504,255.658818 120.095957,255.658818 C123.735229,255.658818 127.3745,257.478454 131.013772,260.207908 C136.472679,263.847179 141.931586,266.576633 148.300311,268.396268 C160.127943,272.03554 171.045757,272.945358 182.87339,270.215904 C194.701022,267.48645 204.709018,262.027543 213.807197,255.658818 C220.175922,251.109729 224.725011,246.56064 228.364283,240.191915 C232.003554,233.82319 233.82319,227.454465 235.642825,220.175922 C238.372279,210.167925 239.282097,200.159929 239.282097,189.242115 C240.191915,180.143936 241.101733,171.955575 243.831186,163.767215 C245.650822,157.39849 248.380275,151.029765 251.109729,144.66104 C252.929365,139.202132 254.749,133.743225 255.658818,127.3745 C256.568636,117.366504 255.658818,108.268325 252.929365,99.1701466 Z M135.562861,7.27854287 C138.292315,6.36872501 141.931586,6.36872501 144.66104,6.36872501 C145.570857,6.36872501 146.480675,6.36872501 147.390493,6.36872501 C157.39849,6.36872501 166.496668,8.18836073 175.594847,10.9178143 C181.053754,12.73745 186.512661,16.3767215 191.06175,20.0159929 C195.61084,23.6552643 197.430475,28.2043536 199.250111,32.7534429 C199.250111,32.7534429 199.250111,32.7534429 199.250111,33.6632608 C199.250111,34.5730786 199.250111,35.4828965 198.340293,35.4828965 C197.430475,35.4828965 197.430475,35.4828965 196.520657,34.5730786 C192.881386,30.9338072 190.151932,27.2945358 186.512661,24.5650822 C181.053754,20.0159929 175.594847,16.3767215 168.316304,14.5570857 C158.308307,11.8276322 149.210129,10.0079964 139.202132,8.18836073 C137.382497,8.18836073 136.472679,8.18836073 134.653043,8.18836073 C134.653043,8.18836073 133.743225,8.18836073 133.743225,8.18836073 C134.653043,8.18836073 134.653043,8.18836073 135.562861,7.27854287 C134.653043,7.27854287 135.562861,7.27854287 135.562861,7.27854287 Z M94.6210573,120.095957 C100.079964,120.095957 104.629054,124.645047 105.538872,131.013772 C105.538872,136.472679 100.989782,141.931586 94.6210573,141.931586 C89.1621502,141.931586 83.703243,137.382497 84.6130609,131.013772 C84.6130609,124.645047 89.1621502,120.095957 94.6210573,120.095957 Z M129.194136,131.92359 L129.194136,131.92359 C129.194136,121.915593 129.194136,110.997779 129.194136,100.989782 C129.194136,80.0639716 147.390493,72.7854287 161.947579,78.2443359 C164.677032,79.1541537 167.406486,80.9737894 170.13594,82.7934251 C171.955575,84.6130609 171.955575,87.3425144 171.045757,90.071968 C169.226122,91.8916037 167.406486,92.8014216 164.677032,90.9817859 C162.857397,90.071968 160.127943,89.1621502 158.308307,88.2523323 C152.8494,86.4326966 146.480675,88.2523323 143.751222,91.8916037 C142.841404,93.7112394 141.931586,95.5308752 141.931586,98.2603287 C141.021768,102.809418 141.931586,106.448689 141.931586,110.997779 C141.931586,129.194136 141.931586,146.480675 141.931586,164.677032 C141.931586,175.594847 136.472679,183.783207 125.554865,186.512661 C116.456686,189.242115 108.268325,188.332297 100.989782,181.053754 C99.1701466,179.234118 98.2603287,176.504665 100.079964,174.685029 C100.989782,172.865393 103.719236,171.955575 106.448689,172.865393 C109.178143,173.775211 111.907597,175.594847 114.63705,176.504665 C123.735229,177.414482 130.103954,173.775211 130.103954,163.767215 C129.194136,152.8494 129.194136,142.841404 129.194136,131.92359 Z M49.1301644,201.069747 C49.1301644,201.069747 48.2203465,201.069747 48.2203465,201.069747 C47.3105287,200.159929 46.4007108,200.159929 45.4908929,199.250111 C43.6712572,197.430475 41.8516215,196.520657 40.0319858,194.701022 C37.3025322,191.971568 35.4828965,189.242115 33.6632608,185.602843 C30.0239893,178.3243 26.3847179,170.13594 24.5650822,161.037761 C23.6552643,156.488672 22.7454465,151.939582 22.7454465,147.390493 C22.7454465,142.841404 21.8356286,138.292315 20.9258108,134.653043 C20.0159929,128.284318 19.106175,121.005775 19.106175,114.63705 C19.106175,106.448689 20.0159929,99.1701466 22.7454465,91.8916037 C25.4749,83.703243 29.1141715,76.4247001 35.4828965,70.0559751 C40.9418036,64.597068 45.4908929,59.1381608 50.9498001,53.6792537 C51.8596179,52.7694358 53.6792537,51.8596179 54.5890715,51.8596179 C54.5890715,52.7694358 53.6792537,54.5890715 52.7694358,55.4988894 C50.0399822,59.1381608 47.3105287,61.8676144 44.5810751,65.5068858 C40.0319858,70.965793 36.3927143,76.4247001 33.6632608,81.8836073 C30.0239893,88.2523323 27.2945358,94.6210573 25.4749,101.8996 C24.5650822,105.538872 23.6552643,109.178143 23.6552643,112.817414 C23.6552643,116.456686 22.7454465,120.095957 23.6552643,124.645047 C23.6552643,130.103954 24.5650822,134.653043 25.4749,139.202132 C26.3847179,144.66104 27.2945358,149.210129 27.2945358,154.669036 C27.2945358,161.037761 29.1141715,167.406486 30.9338072,173.775211 C30.9338072,175.594847 32.7534429,176.504665 32.7534429,178.3243 C35.4828965,183.783207 38.2123501,188.332297 42.7614394,191.971568 C44.5810751,193.791204 46.4007108,196.520657 48.2203465,198.340293 C48.2203465,198.340293 48.2203465,199.250111 49.1301644,199.250111 C49.1301644,200.159929 49.1301644,200.159929 49.1301644,201.069747 L49.1301644,201.069747 Z M72.7854287,223.815193 C69.1461573,223.815193 66.4167037,224.725011 62.7774323,225.634829 C59.1381608,226.544647 57.3185251,224.725011 56.4087072,221.08574 C56.4087072,220.175922 55.4988894,218.356286 56.4087072,217.446468 C57.3185251,214.717015 59.1381608,214.717015 60.9577965,216.53665 C62.7774323,218.356286 65.5068858,220.175922 67.3265215,221.08574 C68.2363394,221.995558 69.1461573,221.995558 70.965793,221.995558 C71.8756108,221.995558 72.7854287,222.905375 74.6050644,223.815193 C73.6952466,223.815193 73.6952466,223.815193 72.7854287,223.815193 L72.7854287,223.815193 Z M141.931586,242.921368 C139.202132,244.741004 135.562861,245.650822 131.92359,245.650822 C129.194136,245.650822 126.464682,244.741004 123.735229,244.741004 C122.825411,244.741004 122.825411,244.741004 121.915593,244.741004 C118.276322,245.650822 115.546868,245.650822 111.907597,246.56064 C110.997779,246.56064 109.178143,246.56064 108.268325,247.470458 C105.538872,247.470458 102.809418,247.470458 100.079964,247.470458 C96.440693,247.470458 93.7112394,245.650822 90.9817859,242.921368 C90.071968,242.01155 89.1621502,240.191915 88.2523323,238.372279 C87.3425144,237.462461 87.3425144,236.552643 87.3425144,234.733008 C87.3425144,233.82319 88.2523323,233.82319 89.1621502,233.82319 C89.1621502,233.82319 90.071968,233.82319 90.071968,233.82319 C94.6210573,236.552643 100.079964,237.462461 104.629054,238.372279 C110.997779,239.282097 117.366504,240.191915 123.735229,240.191915 C127.3745,240.191915 130.103954,241.101733 133.743225,241.101733 C135.562861,241.101733 138.292315,241.101733 140.11195,241.101733 C141.021768,241.101733 141.021768,241.101733 141.021768,241.101733 C142.841404,242.01155 141.931586,242.01155 141.931586,242.921368 Z M175.594847,220.175922 C169.226122,223.815193 161.947579,226.544647 154.669036,228.364283 C152.8494,228.364283 150.119947,229.2741 148.300311,229.2741 C146.480675,229.2741 143.751222,229.2741 141.931586,230.183918 C138.292315,231.093736 134.653043,230.183918 131.013772,230.183918 C128.284318,230.183918 125.554865,229.2741 122.825411,230.183918 C121.915593,230.183918 121.915593,230.183918 121.005775,230.183918 C117.366504,229.2741 112.817414,228.364283 109.178143,227.454465 C104.629054,226.544647 100.079964,224.725011 96.440693,222.905375 C92.8014216,221.995558 89.1621502,220.175922 86.4326966,218.356286 C84.6130609,217.446468 82.7934251,215.626833 80.9737894,214.717015 C75.5148823,209.258108 70.0559751,204.709018 65.5068858,200.159929 C61.8676144,195.61084 58.228343,191.971568 54.5890715,187.422479 C50.9498001,181.963572 48.2203465,176.504665 45.4908929,170.13594 C44.5810751,167.406486 43.6712572,164.677032 42.7614394,161.947579 C41.8516215,159.218125 40.9418036,157.39849 40.9418036,154.669036 C40.9418036,151.939582 40.9418036,150.119947 40.9418036,147.390493 C43.6712572,154.669036 45.4908929,162.857397 49.1301644,170.13594 C55.4988894,184.693025 64.597068,197.430475 76.4247001,207.438472 C89.1621502,217.446468 102.809418,223.815193 118.276322,226.544647 C126.464682,228.364283 134.653043,228.364283 142.841404,228.364283 C152.8494,227.454465 162.857397,225.634829 171.955575,221.08574 C173.775211,220.175922 174.685029,219.266104 176.504665,219.266104 C176.504665,220.175922 176.504665,220.175922 175.594847,220.175922 Z M176.504665,141.021768 C171.045757,141.021768 166.496668,136.472679 166.496668,130.103954 C166.496668,124.645047 171.045757,119.186139 177.414482,119.186139 C182.87339,119.186139 187.422479,123.735229 187.422479,130.103954 C187.422479,136.472679 182.87339,141.931586 176.504665,141.021768 Z M232.913372,192.881386 C232.913372,196.520657 232.003554,200.159929 231.093736,203.7992 C230.183918,207.438472 230.183918,211.987561 228.364283,215.626833 C227.454465,219.266104 226.544647,221.995558 224.725011,225.634829 C223.815193,228.364283 221.995558,231.093736 219.266104,232.913372 C216.53665,234.733008 214.717015,236.552643 211.077743,237.462461 C207.438472,239.282097 204.709018,240.191915 200.159929,240.191915 C197.430475,240.191915 195.61084,240.191915 192.881386,240.191915 C192.881386,240.191915 191.971568,240.191915 191.971568,240.191915 C190.151932,239.282097 190.151932,239.282097 191.06175,237.462461 C191.971568,235.642825 193.791204,234.733008 195.61084,233.82319 C198.340293,232.003554 201.069747,229.2741 202.889382,227.454465 C209.258108,221.08574 214.717015,212.897379 220.175922,205.618836 C223.815193,201.979565 225.634829,196.520657 228.364283,191.971568 C229.2741,191.06175 229.2741,190.151932 230.183918,189.242115 C232.913372,191.06175 232.913372,191.971568 232.913372,192.881386 Z M96.440693,40.0319858 C111.907597,32.7534429 128.284318,30.0239893 144.66104,31.8436251 C148.300311,31.8436251 151.939582,32.7534429 154.669036,34.5730786 C160.127943,36.3927143 165.58685,38.2123501 171.045757,40.0319858 C176.504665,41.8516215 181.963572,44.5810751 186.512661,47.3105287 C192.881386,50.9498001 198.340293,55.4988894 203.7992,60.9577965 C211.077743,68.2363394 217.446468,75.5148823 221.995558,84.6130609 C224.725011,90.071968 226.544647,95.5308752 228.364283,100.989782 C230.183918,107.358507 232.003554,114.63705 232.003554,121.005775 C232.003554,123.735229 232.003554,126.464682 232.003554,129.194136 C232.003554,132.833407 231.093736,136.472679 231.093736,140.11195 L231.093736,140.11195 C231.093736,137.382497 231.093736,134.653043 231.093736,131.013772 C231.093736,120.095957 228.364283,110.087961 225.634829,100.079964 C223.815193,95.5308752 221.995558,90.9817859 220.175922,86.4326966 C218.356286,80.9737894 215.626833,76.4247001 211.987561,71.8756108 C211.077743,70.965793 209.258108,70.965793 208.34829,70.0559751 C207.438472,70.0559751 207.438472,70.0559751 206.528654,69.1461573 C201.979565,64.597068 196.520657,60.0479787 191.06175,55.4988894 C183.783207,50.0399822 175.594847,45.4908929 167.406486,42.7614394 C163.767215,40.9418036 160.127943,40.0319858 156.488672,39.1221679 C148.300311,37.3025322 140.11195,35.4828965 131.92359,36.3927143 C129.194136,36.3927143 126.464682,36.3927143 123.735229,36.3927143 C121.005775,36.3927143 118.276322,37.3025322 114.63705,38.2123501 C109.178143,39.1221679 103.719236,40.9418036 99.1701466,42.7614394 C99.1701466,42.7614394 98.2603287,42.7614394 98.2603287,42.7614394 C98.2603287,42.7614394 97.3505109,42.7614394 98.2603287,41.8516215 C98.2603287,41.8516215 98.2603287,40.9418036 97.3505109,40.0319858 M244.741004,141.021768 C243.831186,133.743225 244.741004,125.554865 244.741004,118.276322 C243.831186,110.997779 242.921368,103.719236 241.101733,96.440693 C245.650822,102.809418 246.56064,110.997779 247.470458,118.276322 C247.470458,125.554865 247.470458,133.743225 244.741004,141.021768 Z M250.199911,145.570857 C250.199911,145.570857 250.199911,145.570857 250.199911,145.570857 C250.199911,142.841404 251.109729,139.202132 252.019547,135.562861 C252.929365,131.92359 252.929365,127.3745 252.929365,123.735229 C252.929365,122.825411 252.929365,121.005775 252.929365,120.095957 C252.929365,112.817414 251.109729,105.538872 249.290093,98.2603287 C245.650822,90.071968 242.01155,83.703243 236.552643,76.4247001 C232.003554,70.965793 228.364283,65.5068858 223.815193,60.0479787 C222.905375,59.1381608 222.905375,59.1381608 221.995558,58.228343 C222.905375,58.228343 222.905375,58.228343 222.905375,59.1381608 C232.003554,66.4167037 239.282097,73.6952466 244.741004,83.703243 C249.290093,92.8014216 252.929365,101.8996 253.839183,111.907597 C256.568636,123.735229 254.749,134.653043 250.199911,145.570857 Z" fill="#2F2E71"></path>
    </g>
</svg>

<?xml version="1.0" encoding="UTF-8"?>
<svg id="Layer_1" data-name="Layer 1" xmlns="http://www.w3.org/2000/svg" viewBox="0 0 256 274.99">
  <path d="M252.93,99.17c-2.73-10.92-8.19-20.02-15.47-28.2-5.46-6.37-11.83-11.83-18.2-18.2-6.37-5.46-10.92-11.83-13.65-19.11-1.82-3.64-3.64-7.28-6.37-10.92-4.55-6.37-11.83-10.92-19.11-14.56C168.32,1.82,155.58,0,141.93,0c-7.28,0-14.56.91-21.84,2.73-10.92,1.82-20.93,6.37-30.93,11.83-6.37,3.64-11.83,8.19-17.29,12.74-9.1,7.28-18.2,14.56-25.47,23.66-5.46,7.28-12.74,11.83-20.02,16.38-7.28,3.64-12.74,9.1-18.2,14.56-5.46,5.46-8.19,11.83-8.19,19.11,0,5.46.91,10.92,1.82,15.47,1.82,8.19,5.46,15.47,8.19,23.66,1.82,4.55,2.73,9.1,2.73,13.65s0,9.1-.91,13.65c-.91,10.01,0,20.93,1.82,30.93,1.82,9.1,7.28,16.38,16.38,20.02.91.91,2.73.91,3.64.91,1.82.91,1.82,1.82.91,2.73l-.91.91c-3.64,4.55-6.37,10.01-5.46,16.38.91,10.01,11.83,16.38,20.93,11.83,5.46-1.82,10.92,0,12.74,3.64.91.91.91,1.82,1.82,2.73,1.82,4.55,3.64,8.19,6.37,11.83,3.64,4.55,8.19,6.37,14.56,5.46,3.64-.91,7.28-1.82,10.92-3.64,6.37-3.64,11.83-8.19,18.2-13.65,1.82-1.82,3.64-1.82,6.37-1.82,3.64,0,7.28,1.82,10.92,4.55,5.46,3.64,10.92,6.37,17.29,8.19,11.83,3.64,22.75,4.55,34.57,1.82,11.83-2.73,21.84-8.19,30.93-14.56,6.37-4.55,10.92-9.1,14.56-15.47,3.64-6.37,5.46-12.74,7.28-20.02,2.73-10.01,3.64-20.02,3.64-30.93.91-9.1,1.82-17.29,4.55-25.47,1.82-6.37,4.55-12.74,7.28-19.11,1.82-5.46,3.64-10.92,4.55-17.29.91-10.01,0-19.11-2.73-28.2ZM135.56,7.28c2.73-.91,6.37-.91,9.1-.91h2.73c10.01,0,19.11,1.82,28.2,4.55,5.46,1.82,10.92,5.46,15.47,9.1s6.37,8.19,8.19,12.74v.91c0,.91,0,1.82-.91,1.82s-.91,0-1.82-.91c-3.64-3.64-6.37-7.28-10.01-10.01-5.46-4.55-10.92-8.19-18.2-10.01-10.01-2.73-19.11-4.55-29.11-6.37h-5.46q.91,0,1.82-.91c-.91,0,0,0,0,0ZM94.62,120.1c5.46,0,10.01,4.55,10.92,10.92,0,5.46-4.55,10.92-10.92,10.92-5.46,0-10.92-4.55-10.01-10.92,0-6.37,4.55-10.92,10.01-10.92ZM129.19,131.92h0v-30.93c0-20.93,18.2-28.2,32.75-22.75,2.73.91,5.46,2.73,8.19,4.55,1.82,1.82,1.82,4.55.91,7.28-1.82,1.82-3.64,2.73-6.37.91-1.82-.91-4.55-1.82-6.37-2.73-5.46-1.82-11.83,0-14.56,3.64-.91,1.82-1.82,3.64-1.82,6.37-.91,4.55,0,8.19,0,12.74v53.68c0,10.92-5.46,19.11-16.38,21.84-9.1,2.73-17.29,1.82-24.57-5.46-1.82-1.82-2.73-4.55-.91-6.37.91-1.82,3.64-2.73,6.37-1.82,2.73.91,5.46,2.73,8.19,3.64,9.1.91,15.47-2.73,15.47-12.74-.91-10.92-.91-20.93-.91-31.84ZM49.13,201.07h-.91c-.91-.91-1.82-.91-2.73-1.82-1.82-1.82-3.64-2.73-5.46-4.55-2.73-2.73-4.55-5.46-6.37-9.1-3.64-7.28-7.28-15.47-9.1-24.57-.91-4.55-1.82-9.1-1.82-13.65s-.91-9.1-1.82-12.74c-.91-6.37-1.82-13.65-1.82-20.02,0-8.19.91-15.47,3.64-22.75,2.73-8.19,6.37-15.47,12.74-21.84,5.46-5.46,10.01-10.92,15.47-16.38.91-.91,2.73-1.82,3.64-1.82,0,.91-.91,2.73-1.82,3.64-2.73,3.64-5.46,6.37-8.19,10.01-4.55,5.46-8.19,10.92-10.92,16.38-3.64,6.37-6.37,12.74-8.19,20.02-.91,3.64-1.82,7.28-1.82,10.92s-.91,7.28,0,11.83c0,5.46.91,10.01,1.82,14.56.91,5.46,1.82,10.01,1.82,15.47,0,6.37,1.82,12.74,3.64,19.11,0,1.82,1.82,2.73,1.82,4.55,2.73,5.46,5.46,10.01,10.01,13.65,1.82,1.82,3.64,4.55,5.46,6.37,0,0,0,.91.91.91v1.82h0ZM72.79,223.82c-3.64,0-6.37.91-10.01,1.82s-5.46-.91-6.37-4.55c0-.91-.91-2.73,0-3.64.91-2.73,2.73-2.73,4.55-.91,1.82,1.82,4.55,3.64,6.37,4.55.91.91,1.82.91,3.64.91.91,0,1.82.91,3.64,1.82h-1.82ZM141.93,242.92c-2.73,1.82-6.37,2.73-10.01,2.73-2.73,0-5.46-.91-8.19-.91h-1.82c-3.64.91-6.37.91-10.01,1.82-.91,0-2.73,0-3.64.91h-8.19c-3.64,0-6.37-1.82-9.1-4.55-.91-.91-1.82-2.73-2.73-4.55-.91-.91-.91-1.82-.91-3.64,0-.91.91-.91,1.82-.91h.91c4.55,2.73,10.01,3.64,14.56,4.55,6.37.91,12.74,1.82,19.11,1.82,3.64,0,6.37.91,10.01.91h7.28c1.82.91.91.91.91,1.82ZM175.59,220.18c-6.37,3.64-13.65,6.37-20.93,8.19-1.82,0-4.55.91-6.37.91s-4.55,0-6.37.91c-3.64.91-7.28,0-10.92,0-2.73,0-5.46-.91-8.19,0h-1.82c-3.64-.91-8.19-1.82-11.83-2.73-4.55-.91-9.1-2.73-12.74-4.55-3.64-.91-7.28-2.73-10.01-4.55-1.82-.91-3.64-2.73-5.46-3.64-5.46-5.46-10.92-10.01-15.47-14.56-3.64-4.55-7.28-8.19-10.92-12.74-3.64-5.46-6.37-10.92-9.1-17.29-.91-2.73-1.82-5.46-2.73-8.19-.91-2.73-1.82-4.55-1.82-7.28v-7.28c2.73,7.28,4.55,15.47,8.19,22.75,6.37,14.56,15.47,27.29,27.29,37.3,12.74,10.01,26.38,16.38,41.85,19.11,8.19,1.82,16.38,1.82,24.57,1.82,10.01-.91,20.02-2.73,29.11-7.28,1.82-.91,2.73-1.82,4.55-1.82q0,.91-.91.91ZM176.5,141.02c-5.46,0-10.01-4.55-10.01-10.92,0-5.46,4.55-10.92,10.92-10.92,5.46,0,10.01,4.55,10.01,10.92s-4.55,11.83-10.92,10.92ZM232.91,192.88c0,3.64-.91,7.28-1.82,10.92-.91,3.64-.91,8.19-2.73,11.83-.91,3.64-1.82,6.37-3.64,10.01-.91,2.73-2.73,5.46-5.46,7.28-2.73,1.82-4.55,3.64-8.19,4.55-3.64,1.82-6.37,2.73-10.92,2.73h-8.19q-1.82-.91-.91-2.73c.91-1.82,2.73-2.73,4.55-3.64,2.73-1.82,5.46-4.55,7.28-6.37,6.37-6.37,11.83-14.56,17.29-21.84,3.64-3.64,5.46-9.1,8.19-13.65.91-.91.91-1.82,1.82-2.73,2.73,1.82,2.73,2.73,2.73,3.64ZM96.44,40.03c15.47-7.28,31.84-10.01,48.22-8.19,3.64,0,7.28.91,10.01,2.73,5.46,1.82,10.92,3.64,16.38,5.46,5.46,1.82,10.92,4.55,15.47,7.28,6.37,3.64,11.83,8.19,17.29,13.65,7.28,7.28,13.65,14.56,18.2,23.66,2.73,5.46,4.55,10.92,6.37,16.38,1.82,6.37,3.64,13.65,3.64,20.02v8.19c0,3.64-.91,7.28-.91,10.92h0v-9.1c0-10.92-2.73-20.93-5.46-30.93-1.82-4.55-3.64-9.1-5.46-13.65-1.82-5.46-4.55-10.01-8.19-14.56-.91-.91-2.73-.91-3.64-1.82q-.91,0-1.82-.91c-4.55-4.55-10.01-9.1-15.47-13.65-7.28-5.46-15.47-10.01-23.66-12.74-3.64-1.82-7.28-2.73-10.92-3.64-8.19-1.82-16.38-3.64-24.57-2.73h-8.19c-2.73,0-5.46.91-9.1,1.82-5.46.91-10.92,2.73-15.47,4.55h-.91s-.91,0,0-.91c0,0,0-.91-.91-1.82M244.74,141.02c-.91-7.28,0-15.47,0-22.75-.91-7.28-1.82-14.56-3.64-21.84,4.55,6.37,5.46,14.56,6.37,21.84,0,7.28,0,15.47-2.73,22.75ZM250.2,145.57h0c0-2.73.91-6.37,1.82-10.01.91-3.64.91-8.19.91-11.83v-3.64c0-7.28-1.82-14.56-3.64-21.84-3.64-8.19-7.28-14.56-12.74-21.84-4.55-5.46-8.19-10.92-12.74-16.38q-.91-.91-1.82-1.82.91,0,.91.91c9.1,7.28,16.38,14.56,21.84,24.57,4.55,9.1,8.19,18.2,9.1,28.2,2.73,11.83.91,22.75-3.64,33.66Z" style="fill: #fff;"/>
</svg>
